img/logo.svg

<svg width="52" height="52" viewBox="0 0 52 52" fill="none" xmlns="http://www.w3.org/2000/svg">
<path d="M0 26C0 11.6406 11.6406 0 26 0C40.3594 0 52 11.6406 52 26C52 40.3594 40.3594 52 26 52C11.6406 52 0 40.3594 0 26Z" fill="black"/>
<path d="M0 26C0 11.6406 11.6406 0 26 0C40.3594 0 52 11.6406 52 26C52 40.3594 40.3594 52 26 52C11.6406 52 0 40.3594 0 26Z" fill="url(#paint0_linear_1218_10208)"/>
<path d="M19.4197 22.3686C19.5226 22.2778 19.5741 22.2325 19.5821 22.1881C19.5892 22.1494 19.5784 22.1098 19.5528 22.08C19.5234 22.0458 19.4571 22.0329 19.3247 22.0071C17.7802 21.7065 16.1811 21.5302 14.7785 21.5155C14.7112 21.5148 14.6775 21.5145 14.6514 21.5019C14.6282 21.4907 14.6092 21.4733 14.5961 21.4512C14.5813 21.4262 14.5781 21.393 14.5716 21.3267L14.0515 15.9787C14.0451 15.9124 14.0419 15.8792 14.0518 15.8517C14.0605 15.8275 14.0763 15.8063 14.0971 15.7911C14.1207 15.7737 14.1533 15.7674 14.2187 15.7547C22.0538 14.2389 29.8523 14.1611 37.8049 15.7577C37.87 15.7707 37.9025 15.7773 37.9259 15.7947C37.9465 15.8101 37.9622 15.8313 37.9708 15.8555C37.9806 15.883 37.9772 15.916 37.9706 15.9821L37.431 21.3274C37.4243 21.3935 37.421 21.4266 37.4061 21.4515C37.393 21.4735 37.374 21.4908 37.3509 21.5019C37.3248 21.5145 37.2913 21.5148 37.2242 21.5155C35.8214 21.5301 34.2221 21.7064 32.6773 22.0071C32.5448 22.0329 32.4786 22.0458 32.4492 22.08C32.4236 22.1098 32.4128 22.1494 32.4198 22.1881C32.4279 22.2325 32.4794 22.2778 32.5823 22.3686C36.3043 25.6498 38.9367 29.9729 38.9958 36.0463C38.9966 36.1192 38.9969 36.1557 38.9828 36.1838C38.9705 36.2083 38.9504 36.2287 38.926 36.2412C38.898 36.2555 38.8616 36.2555 38.7889 36.2555H33.4271C33.3542 36.2555 33.3178 36.2555 33.2902 36.2416C33.2657 36.2292 33.2462 36.21 33.2335 36.1857C33.2192 36.1582 33.2187 36.1209 33.2177 36.0463C33.1481 30.9769 30.5447 27.5975 26.1144 24.7045C26.0735 24.6777 26.053 24.6643 26.0308 24.6591C26.0113 24.6545 25.9906 24.6545 25.9712 24.6591C25.949 24.6643 25.9285 24.6777 25.8876 24.7045C21.4573 27.5975 18.8539 30.9769 18.7843 36.0463C18.7833 36.1209 18.7828 36.1582 18.7685 36.1857C18.7558 36.21 18.7363 36.2292 18.7118 36.2416C18.6842 36.2555 18.6477 36.2555 18.5749 36.2555H13.2131C13.1403 36.2555 13.104 36.2555 13.076 36.2412C13.0516 36.2287 13.0314 36.2083 13.0191 36.1838C13.0051 36.1557 13.0054 36.1192 13.0061 36.0463C13.0652 29.9729 15.6977 25.6498 19.4197 22.3686Z" fill="white"/>
<defs>
<linearGradient id="paint0_linear_1218_10208" x1="26" y1="0" x2="26" y2="52" gradientUnits="userSpaceOnUse">
<stop stop-color="#EF3F51"/>
<stop offset="1" stop-color="#FC6743"/>
</linearGradient>
</defs>
</svg>

<svg width="52" height="52" fill="none" xmlns="http://www.w3.org/2000/svg"><path d="M0 26C0 11.64 11.64 0 26 0s26 11.64 26 26-11.64 26-26 26S0 40.36 0 26z" fill="#000"/><path d="M0 26C0 11.64 11.64 0 26 0s26 11.64 26 26-11.64 26-26 26S0 40.36 0 26z" fill="url(#paint0_linear_1218_10208)"/><path d="M19.42 22.369c.103-.091.154-.136.162-.18a.13.13 0 00-.03-.109c-.029-.034-.095-.047-.227-.073-1.545-.3-3.144-.477-4.546-.492-.068 0-.101 0-.128-.013a.129.129 0 01-.055-.05c-.015-.026-.018-.059-.024-.125l-.52-5.348c-.007-.067-.01-.1 0-.127a.13.13 0 01.045-.06c.024-.018.056-.025.122-.037 7.835-1.516 15.633-1.594 23.586.003.065.013.098.02.12.037a.13.13 0 01.046.06c.01.028.006.061 0 .127l-.54 5.345c-.007.066-.01.1-.025.124a.129.129 0 01-.055.05c-.026.014-.06.014-.127.014-1.403.015-3.002.191-4.547.492-.132.026-.198.039-.228.073a.13.13 0 00-.03.108c.009.045.06.09.163.18 3.722 3.282 6.355 7.605 6.414 13.678 0 .073 0 .11-.013.138a.13.13 0 01-.057.057c-.028.014-.064.014-.137.014h-5.362c-.073 0-.11 0-.137-.013a.13.13 0 01-.056-.056c-.015-.028-.015-.065-.016-.14-.07-5.07-2.673-8.448-7.104-11.341a.289.289 0 00-.083-.046.13.13 0 00-.06 0 .289.289 0 00-.083.046c-4.43 2.893-7.034 6.272-7.104 11.341 0 .075-.001.112-.015.14a.13.13 0 01-.057.056c-.028.014-.064.014-.137.014h-5.362c-.073 0-.109 0-.137-.015a.131.131 0 01-.057-.057c-.014-.028-.014-.065-.013-.138.06-6.073 2.692-10.396 6.414-13.677z" fill="#fff"/><defs><linearGradient id="paint0_linear_1218_10208" x1="26" y1="0" x2="26" y2="52" gradientUnits="userSpaceOnUse"><stop stop-color="#EF3F51"/><stop offset="1" stop-color="#FC6743"/></linearGradient></defs></svg>
